assets/illustrations/default/search-1.svg

<svg xmlns="http://www.w3.org/2000/svg" width="1080" height="1081" fill="none"><path fill="#072F73" d="M788.067 830.591 621.552 690.852l-2.736 2.643-.699-.7-16.801 17.491-17.5 16.806.7.7-2.642 2.752 139.705 166.558 16.101-16.091z"/><path fill="#1968F0" d="m669.367 715.661-31.208 31.483-31.472 31.219 179.617 209.765 30.182-30.193 32.39-32.385 30.182-30.193z"/><path fill="#072F73" d="M365.233 814.295c201.713 0 365.233-161.49 365.233-360.698S566.946 92.899 365.233 92.899 0 254.39 0 453.597s163.52 360.698 365.233 360.698"/><path fill="url(#a)" d="M365.23 766.098c177.679 0 321.716-139.912 321.716-312.501 0-172.59-144.037-312.501-321.716-312.501S43.514 281.007 43.514 453.597 187.551 766.098 365.23 766.098"/><path fill="#0096FA" d="M888.665 844.831c105.671 0 191.335-89.627 191.335-200.188s-85.664-200.187-191.335-200.187-191.336 89.627-191.336 200.187 85.664 200.188 191.336 200.188"/><path fill="#35DE90" d="M814.658 454.516c51.853 0 93.888-42.05 93.888-93.922s-42.035-93.921-93.888-93.921-93.888 42.05-93.888 93.921 42.035 93.922 93.888 93.922"/><defs><linearGradient id="a" x1="487.7" x2="239.011" y1="75.299" y2="842.928" gradientUnits="userSpaceOnUse"><stop stop-color="#fff"/><stop offset=".32" stop-color="#FCFDFE"/><stop offset=".55" stop-color="#F2F6FE"/><stop offset=".76" stop-color="#E2ECFD"/><stop offset=".95" stop-color="#CBDDFB"/><stop offset="1" stop-color="#C5D9FB"/></linearGradient></defs></svg>

<svg width="1080" height="1081" viewBox="0 0 1080 1081" fill="none" xmlns="http://www.w3.org/2000/svg">
<path d="M788.067 830.591L621.552 690.852L618.816 693.495L618.117 692.795L601.316 710.286L583.816 727.092L584.516 727.792L581.874 730.544L721.579 897.102L737.68 881.011L788.067 830.591Z" fill="#072F73"/>
<path d="M669.367 715.661L638.159 747.144L606.687 778.363L786.304 988.128L816.486 957.935L848.876 925.55L879.058 895.357L669.367 715.661Z" fill="#1968F0"/>
<path d="M365.233 814.295C566.946 814.295 730.466 652.805 730.466 453.597C730.466 254.389 566.946 92.8994 365.233 92.8994C163.52 92.8994 0 254.389 0 453.597C0 652.805 163.52 814.295 365.233 814.295Z" fill="#072F73"/>
<path d="M365.23 766.098C542.909 766.098 686.946 626.186 686.946 453.597C686.946 281.007 542.909 141.096 365.23 141.096C187.551 141.096 43.5144 281.007 43.5144 453.597C43.5144 626.186 187.551 766.098 365.23 766.098Z" fill="url(#paint0_linear_18020_2649)"/>
<path d="M888.665 844.831C994.336 844.831 1080 755.204 1080 644.643C1080 534.083 994.336 444.456 888.665 444.456C782.993 444.456 697.329 534.083 697.329 644.643C697.329 755.204 782.993 844.831 888.665 844.831Z" fill="#0096FA"/>
<path d="M814.658 454.516C866.511 454.516 908.546 412.466 908.546 360.594C908.546 308.723 866.511 266.673 814.658 266.673C762.805 266.673 720.77 308.723 720.77 360.594C720.77 412.466 762.805 454.516 814.658 454.516Z" fill="#35DE90"/>
<defs>
<linearGradient id="paint0_linear_18020_2649" x1="487.7" y1="75.2994" x2="239.011" y2="842.928" gradientUnits="userSpaceOnUse">
<stop stop-color="white"/>
<stop offset="0.32" stop-color="#FCFDFE"/>
<stop offset="0.55" stop-color="#F2F6FE"/>
<stop offset="0.76" stop-color="#E2ECFD"/>
<stop offset="0.95" stop-color="#CBDDFB"/>
<stop offset="1" stop-color="#C5D9FB"/>
</linearGradient>
</defs>
</svg>
